X:0490
T:My Mother says I manna.
M:6/8
L:1/8
Q:3/8=104 "Allegretto"
I: || ::
Z:Jack Campin * www.campin.me.uk * 2009
K:D
D| FGA TB2A|d2c    TB2A|GAF TE2D|Dd2 z2
D| FGA TB2A|d2c    TB2A|GAF TE2D|Dd2 z2||
d| c2d  edc|d2c     B2\
A|Tc2d  e2E|E/F/GF TE2\
D| c2d  edc|d2c     B2
d| AGF  E2D|DdD     DdB|AGF  E2D|Dd2 z2:|

